X:212
T:Jerusalem the Golden
%%stretchlast false
M:4/4
L:1/4
K:Ab clef=C1
"^I"[A,CEA] "^♯iii"[A,DEB] "^I"[A,CEA] "^IV²"[A,FAd] | "^I"[A,EAc] [E,EAB] "^V"[E,EGB] "^iii+"[A,CA] | "^I"[A,EAc] "^V¹"[G,EBe] "^I"[A,Eca] "^III"[C=Ecg] | "^III7"[CGB=e] "^♯vii"[F,FAf]3 | "^IV"[D,Adf] "^I"[A,Ace] [A,EAc] "^III"[C=EGc] | "^III7¹"[=E,CGB] "^vi"[F,CFA]2 "^V"[E,EGB] | "^I"[A,EAc] [A,EAc] "^I¹"[C,EAc] "^ii¹"[D,DFB] | "^vi"[F,CFA] "^V"[E,EGB]3 | [EGB] "^IV"[DFAd] "^I"[A,EAc] "^IV"[DFAf] | "^V/vi"[C=Ecg] "^vi"[Fca]2 "^V"[EGeb] | [EGe] "^I"[A,Aec']3/2 [A,Aec']/ "^ii¹"[DFfb] | "^IV¹"[FAda] "^V"[EBeg]3 | "^viiø7²"[DGBf] "^I¹"[CAe] "^I"[A,EAc] "^III"[C=EGc] | "^III7¹"[=E,CGB] "^vi"[F,CFA]2 "^V"[E,EGB] | "^I"[A,EAc] [A,EAc] "^I¹"[C,EAc] "^V7"[E,DGB]3/2 | "^iii+"[A,CA]/ [A,CA]3 |]
